Adwaita++/apps/16/crow-translate.svg

<svg height="16" width="16" xmlns="http://www.w3.org/2000/svg">
  <path d="m14.515 3.504c.048.425-.035.868.013 1.3.05.47-.015.964-.1 1.427-.01-.376-.02-.756-.04-1.124-.021-.387-.176-.785-.281-1.163.113.795.163 1.601.183 2.398.015.617.017 1.258-.086 1.859-.1.587-.408 1.176-.601 1.72-.286.805-.196 1.881-.264 2.766 0 0-.067.154-.183-.596-.155-1.014-.242-2.125-.222-3.157v-.024c0-.013-.002-.035-.002-.035s-.033.094-.038.122c-.002.01-.007.037-.007.044v.003c-.003.012-.005.027-.008.044-.002.01-.002.018-.005.028-.002.017-.007.04-.01.059-.002.01-.005.023-.005.033-.015.082-.035.184-.06.305-.123.584-.867.848-.949 1.437-.003.013-1.131.104-.005.035-.068.407-.105.548-.358.834-.268.303-.099-.186-.462.028.347.09.015-.01 0 0-.487.328.996-.297.487-.023-.035.019.255-.281-.025-.005.926-.403-.57.837-.553.817.131-.139-.085.156 0 0 .705-.971-.002.005 0 0 .281-.567-.162-.205.091-.789 0 0-.07.105-.158.229-.11.154-.256.343-.316.415-.477.571-.813 1.401-1.312 1.946-.18.196-.489.271-.692.462-.19.179-.464.296-.712.338-.401.067-.827.311-1.236.46 0 0 .241-.286.416-.512.366-.477.705-.979 1.013-1.499-.007.005-.215.174-.351.465-.236.514-.825.9-1.234 1.297-.301.294-.724.465-1.133.552-.69-.027-1.392-.102-2.061-.266-.557-.139-1.573-.46-1.776-.84-.027-.055-.04-.273.076-.482.2-.363.604-.664.85-1.017.461-.668 1.121-1.682 1.785-2.077.369-.219.863-.351 1.294-.525.198-.067.293-.101.489-.174-.487.107-.955.289-1.419.463 0 0 .002.005.25-.323.276-.363.64-.664.961-.982.564-.559 1.938-1.464 1.938-1.464s-.73.433-1.111.438c-.23.002-.456.136-.647.256.236-.264.489-.52.733-.773.491-.517 1.166-.888 1.767-1.275-.298.062-.629.032-.927-.013.566-.353 1.118-.753 1.592-1.213 1.166-1.135 1.74-2.8 2.643-4.115.414-.602.986-1.126 1.535-1.618 0 0 .366.055.421.263.135.52.366 1.037.544 1.554.186.529.206 1.13.268 1.687z" fill="#444"/>
</svg>

<svg xmlns="http://www.w3.org/2000/svg" width="16" height="16" version="1.1">
 <path fill="#444" d="M 14.515 3.504 C 14.563 3.929 14.48 4.372 14.528 4.804 C 14.578 5.274 14.513 5.768 14.428 6.231 C 14.418 5.855 14.408 5.475 14.388 5.107 C 14.367 4.72 14.212 4.322 14.107 3.944 C 14.22 4.739 14.27 5.545 14.29 6.342 C 14.305 6.959 14.307 7.6 14.204 8.201 C 14.104 8.788 13.796 9.377 13.603 9.921 C 13.317 10.726 13.407 11.802 13.339 12.687 C 13.339 12.687 13.272 12.841 13.156 12.091 C 13.001 11.077 12.914 9.966 12.934 8.934 L 12.934 8.91 C 12.934 8.897 12.932 8.875 12.932 8.875 C 12.932 8.875 12.899 8.969 12.894 8.997 C 12.892 9.007 12.887 9.034 12.887 9.041 L 12.887 9.044 C 12.884 9.056 12.882 9.071 12.879 9.088 C 12.877 9.098 12.877 9.106 12.874 9.116 C 12.872 9.133 12.867 9.156 12.864 9.175 C 12.862 9.185 12.859 9.198 12.859 9.208 C 12.844 9.29 12.824 9.392 12.799 9.513 C 12.676 10.097 11.932 10.361 11.85 10.95 C 11.847 10.963 10.719 11.054 11.845 10.985 C 11.777 11.392 11.74 11.533 11.487 11.819 C 11.219 12.122 11.388 11.633 11.025 11.847 C 11.372 11.937 11.04 11.837 11.025 11.847 C 10.538 12.175 12.021 11.55 11.512 11.824 C 11.477 11.843 11.767 11.543 11.487 11.819 C 12.413 11.416 10.917 12.656 10.934 12.636 C 11.065 12.497 10.849 12.792 10.934 12.636 C 11.639 11.665 10.932 12.641 10.934 12.636 C 11.215 12.069 10.772 12.431 11.025 11.847 C 11.025 11.847 10.955 11.952 10.867 12.076 C 10.757 12.23 10.611 12.419 10.551 12.491 C 10.074 13.062 9.738 13.892 9.239 14.437 C 9.059 14.633 8.75 14.708 8.547 14.899 C 8.357 15.078 8.083 15.195 7.835 15.237 C 7.434 15.304 7.008 15.548 6.599 15.697 C 6.599 15.697 6.84 15.411 7.015 15.185 C 7.381 14.708 7.72 14.206 8.028 13.686 C 8.021 13.691 7.813 13.86 7.677 14.151 C 7.441 14.665 6.852 15.051 6.443 15.448 C 6.142 15.742 5.719 15.913 5.31 16 C 4.62 15.973 3.918 15.898 3.249 15.734 C 2.692 15.595 1.676 15.274 1.473 14.894 C 1.446 14.839 1.433 14.621 1.549 14.412 C 1.749 14.049 2.153 13.748 2.399 13.395 C 2.86 12.727 3.52 11.713 4.184 11.318 C 4.553 11.099 5.047 10.967 5.478 10.793 C 5.676 10.726 5.771 10.692 5.967 10.619 C 5.48 10.726 5.012 10.908 4.548 11.082 C 4.548 11.082 4.55 11.087 4.798 10.759 C 5.074 10.396 5.438 10.095 5.759 9.777 C 6.323 9.218 7.697 8.313 7.697 8.313 C 7.697 8.313 6.967 8.746 6.586 8.751 C 6.356 8.753 6.13 8.887 5.939 9.007 C 6.175 8.743 6.428 8.487 6.672 8.234 C 7.163 7.717 7.838 7.346 8.439 6.959 C 8.141 7.021 7.81 6.991 7.512 6.946 C 8.078 6.593 8.63 6.193 9.104 5.733 C 10.27 4.598 10.844 2.933 11.747 1.618 C 12.161 1.016 12.733 0.492 13.282 0 C 13.282 0 13.648 0.055 13.703 0.263 C 13.838 0.783 14.069 1.3 14.247 1.817 C 14.433 2.346 14.453 2.947 14.515 3.504 L 14.515 3.504 Z"/>
</svg>
